!!!OTL: Liebesklagen.
!!!OTL-incipit: WIE LANG SOLL ICH MICH QUAELEN
!!!COM: Volksweise
!!!ARE: Europa, Mitteleuropa, Deutschland
!!!SCT: F0949
!!!TXL: @@DE
!!!YEM: Copyright 1995, estate of Helmut Schaffrath.
**kern	**text
*ICvox	*
*clefG2	*
*M4/4	*
*met(c)	*
*k[f#c#g#]	*
*A:	*
{4e	Wie
=1	=1
(>8.aL	lang'
32b	.
32aJ	.
8g#)	.
8f#	ſoll
4e	ich
4a	mich
=2	=2
(>4c#	quä-
16eL	.
16d	.
16c#	.
16dJ)	.
4.e}	-len,
{8a	ach
=3	=3
8f#L	al-
8bJ	.
8dd/L	-ler-
8bJ	.
4a	-ſchönſtes
(16aL	.
16g#	.
16f#	.
16g#J)	.
=4	=4
4a	Herʒ!
4r	.
4r}	.
{4e	Thu'
=5	=5
(>8.aL	mich
32b	.
32aJ	.
8g#)	.
8f#	nicht
4e	län-
4a	-ger
=6	=6
(>4c#	näh-
16eL	.
16d	.
16c#	.
16dJ)	.
4.e}	-len,
{8a	ſonſt
=7	=7
8f#L	leid'
8bJ	.
8dd/L	ich
8bJ	.
4a	gro-
(16aL	-ßen
16g#	.
16f#	.
16g#J)	.
=8	=8
4a	Schmerʒ.
4r	.
4r}	.
{8aL	Wenn
8bJ	.
=9	=9
4.cc#/	du
8b/	ver-
8aL	-läſ-
8g#J	.
8a/L	-ſeſt
8ccJ#	.
=10	=10
(>8b/L	mich,
8ee'	.
8b'	.
8g#'J)	.
4.e}	.
{8e	ſo
=11	=11
4.cc#/	muß
8b/	ich
8aL	ſelb-
8g#J	.
8a/L	-ſten
8cc#J	.
=12	=12
(>8b/L	mich
8ee'	.
8b'	.
8g#'J)	.
4e	.
8r}	.
{24eL	ver-
24f#	.
24g#J	.
=13	=13
(>8.aL	-wün-
32b	.
32aJ	.
8g#)	.
8f#	-ſchen
4e	und
4a	gar
=14	=14
(>4c#	töd-
16eL	.
16d	.
16c#	.
16dJ)	.
4.e}	-ten,
{8a	ach,
=15	=15
4f#	Schatʒ,
8dd/L	die
8bJ	.
4a	Treu'
4g#	nicht
=16	=16
(>8a/L	brich',
8b	.
8cc#	.
8ff#J	.
4.ee/)}	.
{8dd/	ach,
=17	=17
8cc#/L	Schatʒ,
8aJ	.
8f#L	die
8bJ	.
4a	Treu'
16aL	nicht
16g#	.
16f#	.
16g#J	.
=18	=18
4a	brich'!
4r	.
4r}	.
==	==
!!!AGN: Liebes - Lied, Klage
!!!ONB: ESAC (Essen Associative Code) Database: FINK
!!!AMT: simple quadruple
!!!AIN: vox
!!!EED: Helmut Schaffrath
!!!EEV: 1.0
!!!RDF**kern: > = above
!!!GTL: Minnelieder
!!Text: Volkslied
!!!source: Musikalischer Hausschatz der Deutschen. Eine Sammlung von über 1000 Liedern und Gesängen mit Singstimmen und Klavierbegleitung. Leipzig, Litterarisches Verlags-Haus.
!!!page: 707
!!!URL-scan: https://www.digitale-sammlungen.de/en/view/bsb11144622?page=617
!!!ENC: Anna Maria Matuszewska
!!!EEV: 2024/08/08
*-	*-